X:1
T:We're Gayly Yet
M:9/8
L:1/8
K:G
 G| G2 d dcB A2 e| e3/2 f/2 g G2 B/2c/2 dBd| G2 d d2c/2-B/2 cec| B2 B ABA f2 e/2f/2|\
 g3/2 f/2 e2 gG G2 d| d2||
M:9/8
 D| G2 g d2 c d2 B| G2 g d2 B d2 B| G2 g dcB cde| =f2 A A2 B c2B/2-A/2|\
 G2 G BAB c2B/2-A/2| GAG BAB c2B/2-A/2| GAG BAB cde| =f2 A AAB c2||\
